X:1
T:Kinklets
T:Two Step
T:By Arthur Marshall Composer of "Swipesy" Cake Walk
T:Copyright 1906 by John Stark &amp; Sons
T:Copyright 1906 by John Stark &amp; Sons
T:Copyright 1906 by John Stark &amp; Sons
T:Copyright 1906 by John Stark &amp; Sons
Z:Copyright 1906 by John Stark & Sons
%%score { ( 1 3 4 ) | 2 }
L:1/8
Q:1/4=80
M:2/4
K:Bb
V:1 treble nm="Piano" snm="Pno."
V:3 treble 
V:4 treble 
V:2 treble 
V:1
"^Introd. Moderato"!mf! g/a/ | b/c'b/ ag | ^f/g/a/d/- d>=f- | f/g/f/d/ c[Gc=e] | %4
 [Fcf]2 !^![Acf] z |:[Q:1/4=80]"^Two Step"!mf! F/G/A/B/- B/[^cg]/[df]/F/ | %6
 [Bd]/d/e/=e/ f/d'/c'/b/ | G/[eg]^G/ A/[ef]F/ | [Bd]g/[df]/- [df]/g/c | B2 [^Fd]2 | %10
 B/A/d/G/- G/g/d/B/ | A/a/f/d/ B/A/^G/A/ | [FAd]2 [FAd] z | F/G/A/B/- B/[^cg]/[df]/F/ | %14
 d/d/e/=e/ f/d'/c'/b/ | G/[eg]^G/ A/[ef]F/ | [Bd]g/[df]/- [df]/g/c | B2 [^Fd]2 | %18
 B/A/G/[_DGB]/- [DGB]/A/G/A/ | [=DFB] [C=EB]2 [_EAc] |1 [DFB]f/f/ ff :|2 [DFB]3 F/^F/ |: %22
!f! [Ge]3 F/^F/ | [Ge]/[Ae]F/ [Ge]F/^F/ | [Gd]3 F/^F/ | [Gd]/[Ad]F/ [Gd]2 | z/ g/f/e/ c/A/G/_G/ | %27
 F/[Bd]F/ [Bd]2 | A/[eg]A/ [eg]G/_G/ | F/[Bd]F/ [Bd]F/^F/ | [Ge]3 F/^F/ | [Ge]/[Ae]F/ [Ge]F/^F/ | %32
 [Gd]3 F/^F/ | [Gd]/[Ad]F/ [Gd]2 | z/ B/G/B/ c/[GBg][FBf]/- | [FBf] [A^ca]2 [Gcg] | %36
 [FBdf]/[GBdg][FBdf]/ d/B/c |1 [DFB]F/F/ FF/^F/ :|2 [DFB]2 [Bdfb] z || B [Ac]2 e | %40
 [_ABd]2 [Bdfb]2 | B, [A,C]2 E | D2 [B,DFB]2 |:[K:Eb]!mp! [GBeg]4 | %44
 [Acf][Beg]/[cfa]/- [cfa]/a/g/f/ | [egb]/c'[df]/- [df]/c'/[dab]/[eg]/- | [eg]/c'/b/g/ f[dab] | %47
 [GBeg]4 | [=Bf]/[Bg][ce]/- [ce]/c'/g/_g/ | f/e'/c'/=a/ [=eg][_ea] | [db]4 | [GBeg]4 | %52
 [Acf][Beg]/[cfa]/- [cfa]/a/g/f/ | [egb]/c'[df]/- [df]/c'/[dab] | [egbe']4 | %55
 [fc'f'][ec'e']- [ec'e']/[Bb]/[cc']/[dd']/ | [egbe']2 [B=egb]2 | [=A_e]2 [_Adf]/b[GBe]/- |1 %58
 [GBe]2 z2 :|2 x2 x z |:!f! B[=Ac][_Ad][GBe] | [eg]/c'g/ b/g/f/e/ | c/[fa]=B/ c/[fa]=A/ | %63
 B/[eg]B/ [eg]2 | d/[fa]/_d/[fa]/ c/[fa]/=B/[fa]/ | _B/[db]B/ [db]B/[db]/ | %66
 c/[ac']c/ [ac']c/[ac']/ | B/[egb]B/ [egb]2 | B[=Ac][_Ad][GBe] | [eg]/c'g/ b/g/f/e/ | %70
 c/[fa]=B/ c/[fa]=A/ | B/[eg]B/ [eg]2 | z/ a/[ff']/[eae']/- [eae']/[ea]/[cec'] | [Beb]2 [B=eb]2 | %74
 [=A_e]2 [_Adf]/b[GBe]/- |1 [GBe][Ac]/d/ [Ac][AB] :|2 x2 [GBe] |] %77
V:2
 G/A/ | B/cB/ AG | ^F/G/A/D/- D>=F- | F/G/F/D/ CB, |[K:bass] A,=B,,/C,/ !^![F,,F,] z |: %5
 [B,,,B,,][F,B,D] [F,,F,][F,B,D] | [B,,,B,,][F,B,D] [F,,F,][_A,B,D] | %7
 [E,,E,][G,B,E] [F,,F,][F,A,E] | B,,[F,B,D] [F,,F,][^F,,^F,] | [G,,G,][G,B,D] [D,,D,][A,CD] | %10
 [G,,G,][G,B,D] [G,,G,][G,B,D] | [D,,D,][A,DF] [^C,^C][A,C=E] | [D,D][A,,A,] [D,,D,] z | %13
 [B,,,B,,][F,B,D] [F,,F,][F,B,D] | [B,,,B,,][F,B,D] [F,,F,][_A,B,D] | %15
 [E,,E,][G,B,E] [F,,F,][F,A,E] | B,,[F,B,D] [F,,F,][^F,,^F,] | [G,,G,][G,B,D] [D,,D,][A,CD] | %18
 [G,,G,][G,B,D] [=E,,=E,]2 | [F,,F,] [G,,G,]2 [F,,F,] |1 [B,,B,] z z2 :|2 %21
 [B,,B,][F,,F,] [B,,,B,,] z |: [C,C][F,A,E] [F,,F,][F,A,E] | [C,C][F,A,E] [F,,F,][F,A,E] | %24
 [B,,B,][F,B,D] [F,,F,][F,B,D] | [B,,B,][F,B,D] [B,,B,][F,B,D] | [F,,F,][F,A,E] [C,C][^C,^C] | %27
 [D,D][F,B,D] [F,,F,][F,B,D] | [C,C][F,A,E] [F,,F,][F,A,E] | [B,,B,][F,B,D] [F,B,D] z | %30
 [C,C][F,A,E] [F,,F,][F,A,E] | [C,C][F,A,E] [F,,F,][F,A,E] | [B,,B,][F,B,D] [F,,F,][F,B,D] | %33
 [B,,B,][F,B,D] [F,,F,][F,B,D] | [E,,E,][E,G,C] [E,,E,][^C,,^C,] | [D,,D,] [=E,,=E,]3 | %36
 [F,,F,][F,B,D] [G,,G,][A,,A,] |1 [B,,B,]2 z2 :|2 [B,,B,][F,,F,] [B,,,B,,] z ||[I:staff -1] G _G3 | %40
 F2[I:staff +1] [B,,,B,,]2 | G, _G,3 | F,2 [B,,,B,,]2 |:[K:Eb] [E,,E,][E,E][D,D][C,C] | %44
 [A,,A,][G,,G,] [F,,F,][A,CF] | [E,,E,][B,EG] [F,,F,][B,DA] | [G,,G,][E,,E,] F,[B,,,B,,] | %47
 [E,,E,][E,E][D,D][C,C] | [G,,G,][G,=B,F] [C,C][G,CE] | [F,,F,][F,=A,E] [C,,C,][F,,F,] | %50
 [B,,B,][_A,,_A,][G,,G,][F,,F,] | [E,,E,][E,E][D,D][C,C] | [A,,A,][G,,G,] [F,,F,][A,CF] | %53
 [E,,E,][B,EG] [F,,F,][B,DA] | [G,,G,][E,,E,][F,,F,][G,,G,] | [A,,A,][A,CF] [A,,A,][^F,,^F,] | %56
 [G,,G,][B,EG] [C,C][G,B,C=E] | [F,,F,][=A,_E] [B,,B,][F,_A,B,D] |1 %58
 [E,E][B,,,B,,][C,,C,][D,,D,] :|2 [E,E][B,,B,] [E,,E,] z |:[I:staff -1] G_GFE | %61
[I:staff +1] [E,E][B,EG] [E,,E,][B,_DEG] | [A,,A,][A,CF] [F,,F,][^F,,^F,] | %63
 [G,,G,][B,EG] [E,,E,][B,EG] | [B,,B,][=B,,=B,] [C,C][^C,^C] | [D,D][B,DA] [B,,B,][B,DA] | %66
 [F,,F,][B,DA] [B,,B,][B,DA] | [E,,E,][B,EG] [B,,,B,,][B,EG] |[I:staff -1] G_GFE | %69
[I:staff +1] [E,E][B,EG] [E,,E,][B,_DEG] | [A,,A,][A,CF] [F,,F,][^F,,^F,] | %71
 [G,,G,][B,EG] [E,,E,][B,EG] | [A,,A,][A,CF] [A,,A,][^F,,^F,] | [G,,G,][B,EG] [C,C][G,B,C=E] | %74
 [F,,F,][F,=A,_E] [B,,B,][F,_A,B,D] |1 [E,E]FE[B,D] :|2 [E,E][B,,B,] [E,,E,] |] %77
V:3
 x | x4 | x4 | x4 | x4 |: x4 | x4 | x4 | x4 | x4 | x4 | x4 | x4 | x4 | x4 | x4 | x4 | x4 | x4 | %19
 x4 |1 x4 :|2 x4 |: x4 | x4 | x4 | x4 | x4 | x4 | x4 | x4 | x4 | x4 | x4 | x4 | x4 | x4 | %36
 x2 [=EB][_EF] |1 x4 :|2 x4 || x4 | x4 | x4 | x4 |:[K:Eb] x4 | x4 | x4 | x4 | x4 | x4 | x4 | x4 | %51
 x4 | x4 | x4 | x4 | x4 | x4 | x7/2 x/- |1 x4 :|2 [GBe]2- [GBe] x |: x4 | x4 | x4 | x4 | x4 | x4 | %66
 x4 | x4 | x4 | x4 | x4 | x4 | x4 | x4 | x7/2 x/- |1 x4 :|2 [GBe]2 x |] %77
V:4
 x | x4 | x4 | x4 | x4 |: x4 | x4 | x4 | x4 | x4 | x4 | x4 | x4 | x4 | x4 | x4 | x4 | x4 | x4 | %19
 x4 |1 x4 :|2 x4 |: x4 | x4 | x4 | x4 | x4 | x4 | x4 | x4 | x4 | x4 | x4 | x4 | x4 | x4 | x4 |1 %37
 x4 :|2 x4 || x4 | x4 | x4 | [_A,B,]2 x2 |:[K:Eb] x4 | x4 | x4 | x4 | x4 | x4 | x4 | x4 | x4 | x4 | %53
 x4 | x4 | x4 | x4 | x4 |1 x4 :|2 x4 |: x4 | x4 | x4 | x4 | x4 | x4 | x4 | x4 | x4 | x4 | x4 | x4 | %72
 x4 | x4 | x4 |1 x4 :|2 x3 |] %77

